X:53
T:Retreat,The. WCl.53
T:She Wants a Fellow,aka. WCl.53
T:Buff Coat,etc,aka. WCl.53
M:6/8
L:1/8
Q:3/8=120
S:William Clarke MS,Lincoln,1770.
R:.jig
O:Lincoln
A:England
N:
Z:vmp.Barry Callaghan
K:D
f/2e/2|d2D FED|EFE cBc|d2A GFE|FDD D2:|!
|:A|dcd Bcd|efd cBA|dcd efg|fdd”sic” df2|!
gfg bcd|efd cBA|d2A GFE|FDD D2:|

